src/DGAttribution/skin/basic/img/DGAttribution__logo.svg

<svg xmlns="http://www.w3.org/2000/svg" width="52" height="24"><path fill="#222" d="M31 8.3c-1.3 0-2.3.9-2.3 3.2v4c0 3.5 3 3.3 4.6 2.8v-3.3h-2.3v-2h5v6c-1.2 1.4-3.3 2-4.5 2-2.7 0-5.5-1-5.5-5v-5c0-3.7 1.9-5 5-5 4.2 0 5.1 3.4 5 5h-2.7c0-1.8-.9-2.7-2.3-2.7zm10-2.1h-3v14.7h3v-14.7zm0 0h-3v14.7h3v-14.7zm6.5 14.8c-3.4 0-4.5-1.9-4.5-5h2.7c-.2 2.1.6 2.7 1.8 2.7 1.1 0 1.8-.5 1.8-1.7 0-3.3-6.3-1.5-6.3-7 0-2.7 2.1-4 4.5-4 3.9 0 4.5 3 4.5 5h-2.7c.2-1.7-.6-2.7-1.9-2.7-1.1 0-1.7.7-1.7 1.7 0 3.2 6.3 1.3 6.3 7 0 2.4-1.6 4-4.5 4z"/><path fill="#fff" d="M11.5 2c-2.6 0-5.1 1-6.9 2.6-1.6 1.8-2.6 4.3-2.6 6.9 0 5.8 4.7 10.5 10.5 10.5 2.6 0 5.1-1 6.9-2.6 1.6-1.8 2.6-4.3 2.6-6.9 0-5.8-4.7-10.5-10.5-10.5z"/><path fill="#EDEE00" d="M12.5 22c-5.8 0-10.5-4.7-10.5-10.5 0-2.4.8-4.6 2.2-6.3-2.6 1.9-4.2 4.9-4.2 8.3 0 5.8 4.7 10.5 10.5 10.5 3.4 0 6.4-1.6 8.3-4.2-1.7 1.4-3.9 2.2-6.3 2.2z"/><path fill="#A6CD2A" d="M10 18c4.6-4 7.5-5.4 7.5-8 0-1-.8-2-2.5-2-1.3 0-2.7.8-2.5 4h-2.5v-2c0-1.6 1-5 5-5 3.1 0 5 2.3 5 5 0 3.8-3.7 6-6 8h6.4c1-1.6 1.6-3.5 1.6-5.5 0-5.8-4.7-10.5-10.5-10.5-2.6 0-5.1 1-6.9 2.6-1.6 1.8-2.6 4.3-2.6 6.9 0 4.9 3.4 9.1 8 10.2v-3.7z"/><path fill="#0DA5D5" d="M13.5 0c-3.4 0-6.4 1.6-8.3 4.2 1.7-1.4 3.9-2.2 6.3-2.2 5.8 0 10.5 4.7 10.5 10.5 0 2.4-.8 4.6-2.2 6.3 2.5-1.9 4.2-4.9 4.2-8.3 0-5.8-4.7-10.5-10.5-10.5z"/></svg>

<svg xmlns="http://www.w3.org/2000/svg" width="52" height="24">
    <path d="m 31,8.3 c -1.3,0 -2.3,0.9 -2.3,3.2 v 4 c 0,3.5 3,3.3 4.6,2.8 V 15 H 31 v -2 h 5 v 6 c -1.2,1.4 -3.3,2 -4.5,2 C 28.8,21 26,20 26,16 v -5 c 0,-3.7 1.9,-5 5,-5 4.2,0 5.1,3.4 5,5 H 33.3 C 33.3,9.2 32.4,8.3 31,8.3 z M 41,6.2 h -3 v 14.7 h 3 V 6.2 z m 0,0 h -3 v 14.7 h 3 V 6.2 z M 47.5,21 C 44.1,21 43,19.1 43,16 h 2.7 c -0.2,2.1 0.6,2.7 1.8,2.7 1.1,0 1.8,-0.5 1.8,-1.7 0,-3.3 -6.3,-1.5 -6.3,-7 0,-2.7 2.1,-4 4.5,-4 3.9,0 4.5,3 4.5,5 H 49.3 C 49.5,9.3 48.7,8.3 47.4,8.3 46.3,8.3 45.7,9 45.7,10 c 0,3.2 6.3,1.3 6.3,7 0,2.4 -1.6,4 -4.5,4 z" fill="#222"/>
    <path d="M 11.5,2 C 8.9,2 6.4,3 4.6,4.6 3,6.4 2,8.9 2,11.5 2,17.3 6.7,22 12.5,22 15.1,22 17.6,21 19.4,19.4 21,17.6 22,15.1 22,12.5 22,6.7 17.3,2 11.5,2 z" fill="#fff"/>
    <path d="M 12.5,22 C 6.7,22 2,17.3 2,11.5 2,9.1 2.8,6.9 4.2,5.2 1.6,7.1 0,10.1 0,13.5 0,19.3 4.7,24 10.5,24 c 3.4,0 6.4,-1.6 8.3,-4.2 -1.7,1.4 -3.9,2.2 -6.3,2.2 z" fill="#edee00"/>
    <path d="m 10,18 c 4.6,-4 7.5,-5.4 7.5,-8 0,-1 -0.8,-2 -2.5,-2 -1.3,0 -2.7,0.8 -2.5,4 H 10 v -2 c 0,-1.6 1,-5 5,-5 3.1,0 5,2.3 5,5 0,3.8 -3.7,6 -6,8 h 6.4 C 21.4,16.4 22,14.5 22,12.5 22,6.7 17.3,2 11.5,2 8.9,2 6.4,3 4.6,4.6 3,6.4 2,8.9 2,11.5 c 0,4.9 3.4,9.1 8,10.2 V 18 z" fill="#a6cd2a"/>
    <path d="M 13.5,0 C 10.1,0 7.1,1.6 5.2,4.2 6.9,2.8 9.1,2 11.5,2 17.3,2 22,6.7 22,12.5 22,14.9 21.2,17.1 19.8,18.8 22.3,16.9 24,13.9 24,10.5 24,4.7 19.3,0 13.5,0 z" fill="#0da5d5"/>
</svg>
